.local/share/icons/Gruvbox-Plus-Dark/panel/16/indicator-fortune.svg

<svg width="16" height="16" version="1.1" xmlns="http://www.w3.org/2000/svg">
  <defs>
    <style id="current-color-scheme" type="text/css">.ColorScheme-Text { color:#ebdbb2; } .ColorScheme-Highlight { color:#458588; } .ColorScheme-NeutralText { color:#fe8019; } .ColorScheme-PositiveText { color:#689d6a; } .ColorScheme-NegativeText { color:#fb4934; }</style>
  </defs>
  <path class="ColorScheme-Text" d="m5.786 1.203c-2.944 0.8515-5.022 3.142-4.764 6.328 0.2969 3.676 5.624 7.392 7.71 7.468 0.9092-0.215 0.3828-3.125-0.1523-5.321-0.1504-0.5935-0.3008-1.185-0.4737-1.779-0.0556-0.1922-0.123-0.4308-0.1406-0.4889-0.2852-0.9561-0.6299-2.048-1.194-3.784-0.1066-0.3137 0.118-0.6422 0.4461-0.6527 0.2198-0.0074 0.418 0.1345 0.4825 0.3466 0.9785 3.008 1.366 4.331 1.765 5.884 1.571 1.969 3.855 4.662 4.593 4.495 1.138-0.26 1.551-7.836-0.526-10.17-2.076-2.337-4.825-2.886-7.745-2.324z" fill="currentColor"/>
</svg>

<svg xmlns="http://www.w3.org/2000/svg" width="16" height="16" version="1.1">
 <defs>
  <style id="current-color-scheme" type="text/css">
   .ColorScheme-Text { color:#ebdbb2; } .ColorScheme-Highlight { color:#458588; }
  </style>
 </defs>
 <path style="fill:currentColor" class="ColorScheme-Text" d="M 5.786,1.2033 C 2.8421,2.0548 0.76416,4.3456 1.0215,7.5315 1.3184,11.207 6.6452,14.923 8.7315,15 9.6407,14.785 9.1143,11.875 8.5792,9.6786 8.4288,9.0851 8.2784,8.4937 8.1055,7.8992 8.0499,7.707 7.9825,7.4684 7.9649,7.4103 7.6797,6.4542 7.335,5.3625 6.7707,3.6267 6.6641,3.313 6.8887,2.9845 7.2168,2.974 7.4366,2.9666 7.6348,3.1085 7.6993,3.3206 8.6778,6.3291 9.0655,7.6518 9.4639,9.2044 11.035,11.173 13.319,13.866 14.057,13.699 15.195,13.439 15.608,5.8633 13.531,3.527 11.455,1.1904 8.7061,0.64126 5.7856,1.2035 Z"/>
</svg>
